dist/images/graphics/icons/auto.svg

<svg width="57" height="39" viewBox="0 0 57 39" fill="none" xmlns="http://www.w3.org/2000/svg">
<path d="M17.2838 21.4989C15.584 21.3021 10.9511 20.7349 9.89139 20.4882V20.4891C9.5571 20.4092 9.20474 20.4728 8.91857 20.6644C8.63325 20.8569 8.44161 21.1594 8.38833 21.4989C8.31528 21.8194 8.37286 22.1554 8.54903 22.433C8.72434 22.7106 9.00363 22.9065 9.32503 22.9779C10.7791 23.2984 16.7175 24.0005 17.0129 24.0254H17.1487L17.1479 24.0246C17.8285 24.0658 18.4129 23.5468 18.4541 22.8662C18.4945 22.1864 17.9763 21.6012 17.2957 21.5608L17.2838 21.4989Z" fill="url(#paint0_linear_129_602)"/>
<path d="M53.21 9.47369L49.0454 8.77158C47.9489 7.39143 44.1179 2.71036 41.7399 1.04672L41.6041 0.960785C40.138 0.196791 29.5428 0 28.1755 0H28.1016C26.7344 0 16.1391 0.196797 14.6731 0.960785L14.5493 1.04672C12.1594 2.70961 8.3893 7.39152 7.24376 8.77158L3.00524 9.47369H3.0061C2.18711 9.57166 1.4326 9.96268 0.88 10.5745C0.327426 11.1856 0.014608 11.9762 0 12.8003C0.04125 13.5866 0.366103 14.3317 0.914365 14.898C1.46179 15.4644 2.19655 15.8133 2.98116 15.8803H3.2278C1.23233 18.8373 0.258675 24.0977 2.23005 31.9704H2.22919C2.29021 32.3107 2.4913 32.6107 2.78434 32.7954V34.9026C2.78434 36.6257 4.17738 38.0246 5.9013 38.0317H11.4693C13.164 38.005 14.5295 36.6343 14.5493 34.9396V34.619C17.9989 34.7918 22.4092 34.9026 28.1017 34.9267C33.7933 34.9516 38.1676 34.7909 41.6542 34.619V34.9396C41.6542 36.6626 43.0472 38.0616 44.7711 38.0686H50.3888C52.1119 38.0618 53.5058 36.6627 53.5058 34.9396V32.8324C53.7945 32.6579 53.9922 32.3649 54.048 32.0315C56.0315 24.1467 55.0587 18.8735 53.0623 15.9173H53.333C54.1134 15.8443 54.8421 15.4928 55.3852 14.9273C55.9275 14.3619 56.2489 13.6202 56.2901 12.8373C56.279 11.996 55.9593 11.1891 55.3913 10.5687C54.8232 9.94823 54.0463 9.55894 53.2101 9.47384L53.21 9.47369ZM50.2779 13.6013C49.7193 13.5755 49.2131 13.9296 49.0455 14.4633C48.8771 15.0013 49.0954 15.5848 49.5758 15.8804C52.0396 17.4574 53.7153 22.7305 51.7191 31.0468C49.9573 31.7119 41.4565 32.39 28.1021 32.4639C14.7474 32.5378 6.24638 31.7128 4.48506 31.0468C2.48959 22.7435 4.10349 17.4943 6.62834 15.8804C7.10616 15.5856 7.32444 15.0055 7.15944 14.4693C6.99358 13.933 6.48741 13.5764 5.92623 13.6013C5.0617 13.6194 4.19631 13.5695 3.33947 13.4535C2.78518 13.3547 2.43972 13.096 2.43972 12.7514C2.43972 12.4068 2.74737 12.0373 3.42543 11.9015L7.76185 11.1744C8.94349 12.6182 10.5893 13.6065 12.4188 13.9709C14.8826 14.624 18.5788 14.6979 23.5064 14.6979H32.7464C37.6739 14.6979 41.3701 14.624 43.8339 13.9709H43.8348C45.6644 13.6065 47.311 12.6182 48.4917 11.1744L52.7791 11.9015C53.5061 12.0373 53.8267 12.4308 53.8138 12.7514C53.8018 13.0719 53.4692 13.3547 52.9389 13.4415V13.4406C52.0581 13.5644 51.1678 13.6185 50.2783 13.6013L50.2779 13.6013ZM28.1019 2.51377V2.51291C32.2174 2.47682 36.3312 2.6865 40.4219 3.14198C42.6795 5.10222 44.742 7.27732 46.5819 9.63462C45.7345 10.6994 44.5237 11.4144 43.1813 11.6421C40.6188 12.3193 36.0976 12.3073 30.3809 12.2953H25.8227C20.1062 12.2953 15.585 12.2953 13.0222 11.6421C11.6773 11.4221 10.4638 10.7054 9.62166 9.63462C11.4633 7.2826 13.5267 5.11252 15.7817 3.15408C19.8706 2.67971 23.9852 2.44939 28.1017 2.464L28.1019 2.51377ZM12.0857 34.9396C12.0857 35.3022 11.7952 35.5979 11.4325 35.6047H5.85179C5.48914 35.5978 5.19865 35.3022 5.19865 34.9396V33.7072C7.48621 34.1275 9.79973 34.3947 12.1227 34.5082L12.0857 34.9396ZM50.9663 34.9396H50.9671C50.9671 35.3022 50.6767 35.5979 50.314 35.6047H44.7332C44.3706 35.5978 44.0801 35.3022 44.0801 34.9396V34.4832C46.4031 34.3698 48.7164 34.1025 51.0042 33.6832L50.9663 34.9396Z" fill="url(#paint1_linear_129_602)"/>
<path d="M47.8134 21.4989C47.7395 21.1801 47.5427 20.9042 47.2652 20.7306C46.9884 20.557 46.6533 20.5012 46.3344 20.5751C45.2379 20.8217 40.6059 21.388 38.942 21.5857H38.9429C38.2622 21.6261 37.744 22.2105 37.7844 22.8911C37.8257 23.5717 38.4101 24.0899 39.0907 24.0495H39.1887C39.4473 24.0495 45.4226 23.3225 46.8766 23.002C47.2031 22.9323 47.4867 22.7321 47.6637 22.4494C47.8399 22.1658 47.8941 21.8229 47.8133 21.4989L47.8134 21.4989Z" fill="url(#paint2_linear_129_602)"/>
<path d="M33.0291 27.3993H23.1738C22.4931 27.3993 21.9414 27.951 21.9414 28.6316C21.9414 29.3114 22.4931 29.8631 23.1738 29.8631H33.03H33.0291C33.7098 29.8631 34.2615 29.3114 34.2615 28.6316C34.2615 27.951 33.7098 27.3993 33.0291 27.3993H33.0291Z" fill="url(#paint3_linear_129_602)"/>
<defs>
<linearGradient id="paint0_linear_129_602" x1="13.4069" y1="20.4554" x2="13.4069" y2="24.0269" gradientUnits="userSpaceOnUse">
<stop stop-color="#4929E9"/>
<stop offset="1" stop-color="#31B1FC"/>
</linearGradient>
<linearGradient id="paint1_linear_129_602" x1="28.1451" y1="0" x2="28.1451" y2="38.0686" gradientUnits="userSpaceOnUse">
<stop stop-color="#4929E9"/>
<stop offset="1" stop-color="#31B1FC"/>
</linearGradient>
<linearGradient id="paint2_linear_129_602" x1="42.8161" y1="20.5432" x2="42.8161" y2="24.0517" gradientUnits="userSpaceOnUse">
<stop stop-color="#4929E9"/>
<stop offset="1" stop-color="#31B1FC"/>
</linearGradient>
<linearGradient id="paint3_linear_129_602" x1="28.1014" y1="27.3993" x2="28.1014" y2="29.8631" gradientUnits="userSpaceOnUse">
<stop stop-color="#4929E9"/>
<stop offset="1" stop-color="#31B1FC"/>
</linearGradient>
</defs>
</svg>

<svg width="57" height="39" fill="none" xmlns="http://www.w3.org/2000/svg"><path d="M17.284 21.499c-1.7-.197-6.333-.764-7.393-1.01a1.233 1.233 0 00-1.503 1.01 1.232 1.232 0 00.937 1.479c1.454.32 7.393 1.022 7.688 1.047h.136-.001a1.234 1.234 0 10.148-2.464l-.012-.062z" fill="url(#paint0_linear_129_602)"/><path d="M53.21 9.474l-4.165-.702c-1.096-1.38-4.927-6.062-7.305-7.725L41.604.96C40.138.197 29.543 0 28.176 0h-.074c-1.368 0-11.963.197-13.429.96l-.124.087C12.16 2.71 8.39 7.392 7.244 8.772l-4.239.702h.001A3.41 3.41 0 000 12.8a3.262 3.262 0 002.981 3.08h.247c-1.996 2.957-2.97 8.218-.998 16.09.06.34.261.64.554.825v2.108a3.13 3.13 0 003.117 3.129h5.568a3.13 3.13 0 003.08-3.092v-.321c3.45.173 7.86.284 13.553.308 5.691.025 10.066-.136 13.552-.308v.32a3.13 3.13 0 003.117 3.13h5.618a3.13 3.13 0 003.117-3.13v-2.107a1.16 1.16 0 00.542-.8c1.983-7.885 1.01-13.158-.986-16.115h.271a3.268 3.268 0 002.957-3.08 3.425 3.425 0 00-3.08-3.363zM50.278 13.6a1.233 1.233 0 00-.702 2.28c2.464 1.576 4.14 6.85 2.143 15.166-1.762.665-10.263 1.343-23.617 1.417-13.355.074-21.856-.751-23.617-1.417-1.995-8.303-.382-13.553 2.143-15.167a1.232 1.232 0 00-.702-2.279c-.864.018-1.73-.032-2.587-.148-.554-.098-.9-.357-.9-.702 0-.344.308-.714.986-.85l4.337-.727a8.05 8.05 0 004.657 2.797c2.464.653 6.16.727 11.087.727h9.24c4.928 0 8.624-.074 11.088-.727a8.046 8.046 0 004.658-2.797l4.287.728c.727.135 1.048.529 1.035.85-.012.32-.345.603-.875.69v-.001a16.79 16.79 0 01-2.66.16h-.001zM28.102 2.514v-.001c4.115-.036 8.23.174 12.32.629a46.438 46.438 0 016.16 6.493 5.527 5.527 0 01-3.4 2.007c-2.563.677-7.084.665-12.801.653h-4.558c-5.717 0-10.238 0-12.8-.653a5.445 5.445 0 01-3.401-2.007 46.795 46.795 0 016.16-6.48 103.72 103.72 0 0112.32-.691v.05zM12.086 34.94c0 .362-.29.658-.654.665h-5.58a.665.665 0 01-.653-.665v-1.233c2.287.42 4.6.688 6.924.801l-.037.432zm38.88 0h.001c0 .362-.29.658-.653.665h-5.58a.665.665 0 01-.654-.665v-.457a52.65 52.65 0 006.924-.8l-.038 1.257z" fill="url(#paint1_linear_129_602)"/><path d="M47.813 21.499a1.234 1.234 0 00-1.479-.924c-1.096.247-5.728.813-7.392 1.01a1.234 1.234 0 10.149 2.464h.098c.258 0 6.234-.726 7.688-1.047a1.234 1.234 0 00.936-1.503z" fill="url(#paint2_linear_129_602)"/><path d="M33.03 27.4h-9.856a1.232 1.232 0 100 2.463h9.856a1.232 1.232 0 100-2.464z" fill="url(#paint3_linear_129_602)"/><defs><linearGradient id="paint0_linear_129_602" x1="13.407" y1="20.455" x2="13.407" y2="24.027" gradientUnits="userSpaceOnUse"><stop stop-color="#4929E9"/><stop offset="1" stop-color="#31B1FC"/></linearGradient><linearGradient id="paint1_linear_129_602" x1="28.145" y1="0" x2="28.145" y2="38.069" gradientUnits="userSpaceOnUse"><stop stop-color="#4929E9"/><stop offset="1" stop-color="#31B1FC"/></linearGradient><linearGradient id="paint2_linear_129_602" x1="42.816" y1="20.543" x2="42.816" y2="24.052" gradientUnits="userSpaceOnUse"><stop stop-color="#4929E9"/><stop offset="1" stop-color="#31B1FC"/></linearGradient><linearGradient id="paint3_linear_129_602" x1="28.101" y1="27.399" x2="28.101" y2="29.863" gradientUnits="userSpaceOnUse"><stop stop-color="#4929E9"/><stop offset="1" stop-color="#31B1FC"/></linearGradient></defs></svg>
